X:1
T:Title
%%score ( 1 2 3 ) ( 4 5 )
L:1/8
M:4/4
K:F
V:1 treble nm="Choir Aahs, Unnamed-000"
V:2 treble 
V:3 treble 
V:4 bass nm="Choir Aahs, Unnamed-001"
V:5 bass 
V:1
 [CF]2 [CE]2 [B,D]2 [B,C]2 | A4 z4 | z2 .A2 z4 | [CF]2 [=B,D]2 [CE]4 | [A,F]2 [^CE]2 [CE]2 D2 | %5
w: By~Sir~Joseph~Barnby,~1886 * * *|||||
 [DA]2 [DG]2 [CF]2 [CE]2 | z2 .A2 z4 | [EA]2 [_A=B]2 =A4 | [^FA]2 [Ad]2 [Ac]2 [GB]2 | z4 A2 .G2 | %10
w: |||||
 [CF]4 [CE]4 | [CF]8 |] %12
w: ||
V:2
 x8 | A,2 z G [CF]2 [CE]2 | [B,B]2 C-[CG] [CA]2 [CG]2 | x8 | x8 | x8 | [EB]2 E-[EG] F2 [DA]2 | x8 | %8
 x8 | [Gc]2 [EB]2 FED-[DF] | x8 | x8 |] %12
V:3
 x8 | z2 D2 z4 | x8 | x8 | x8 | x8 | x8 | x8 | x8 | x8 | x8 | x8 |] %12
V:4
 [F,A,]2 [C,G,]2 [D,F,]2 [E,G,]2 | [F,A,]2 [B,,B,]2 [C,A,]2 [C,G,]2 | %2
 [D,F,]2 [E,B,]2 [F,A,]2 [E,C]2 | [D,A,]2 G,2 [C,G,]4 | [D,F,]2 [A,,G,]2 [B,,G,]2 [B,,F,]2 | %5
 [=B,,F,]2 [B,,G,]2 [C,A,]2 [C,G,]2 | [^C,G,]2 A,B, [D,A,]2 [F,A,]2 | [E,C]2 [E,D]2 [A,C]4 | %8
 [D,D]2 [^F,D]2 [G,D]2 [G,D]2 | [E,C]2 [C,C]2 [F,C]2 B,A, | G,2 A,2 [C,B,]4 | [F,A,]8 |] %12
V:5
 x8 | x8 | x8 | x8 | x8 | x8 | z2 ^C,2 z4 | x8 | x8 | z4 z2 B,,2 | C,4 z4 | x8 |] %12

